X: 5804
T: Caledon Line, The
R: jig
M: 6/8
K: Gmajor
|:DGG GFD|DCA, DCA,|DGG GFD|DCA, A,G,G,|
DGG GFD|DCA, DCA,|DGG GFD|DCA, G,3:|
FDD GDD|AGF GFD|FDD GDD|GFD CA,G,|
FDD GDD|AGF GFD|FDD FDG|GFD CA,G,|
FDD GDD|AGF GFD|FGA cAG|AGF GFD|
FDD GDD|AGF GFD|FDD FDG|GFD CA,G,|
|:Bcd cBG|DED DEF|GDD ECC|DGG FGA|
Bcd cBG|DED DEF|G3 GFD|CA,D G,3:|

